X:13
T:Blackberry Blossom
Z: id:dc-reel-14
M:C
L:1/8
K:G Major
ge|dBAc BGG2|dBBA B2ge|dBAc BGG2|eaa^g a2:|!
ef|g3f gaba|gfgb agef|g3f gabg|eaa^g a=gef|!
g3f gaba|gfgb a2ga|bgaf gedg|eaa^g a2|]!

